src/assets/icons/sax/IconFinding.svg

<svg width="20" height="20" viewBox="0 0 24 24" fill="none" xmlns="http://www.w3.org/2000/svg">
<path d="M4.67998 10H19.31C20.79 10 21.99 8.79002 21.99 7.32002V4.69002C21.99 3.21002 20.78 2.01001 19.31 2.01001H4.67998C3.19998 2.01001 1.99998 3.22002 1.99998 4.69002V7.32002C1.99998 8.79002 3.20998 10 4.67998 10Z" stroke="currentColor" stroke-width="1.5" stroke-linecap="round" stroke-linejoin="round"/>
<path d="M4.67998 22H19.31C20.79 22 21.99 20.79 21.99 19.32V16.69C21.99 15.21 20.78 14.01 19.31 14.01H4.67998C3.19998 14.01 1.99998 15.22 1.99998 16.69V19.32C1.99998 20.79 3.20998 22 4.67998 22Z" stroke="currentColor" stroke-width="1.5" stroke-linecap="round" stroke-linejoin="round"/>
<path d="M18 5V7" stroke="currentColor" stroke-width="1.5" stroke-linecap="round" stroke-linejoin="round"/>
<path d="M14 5V7" stroke="currentColor" stroke-width="1.5" stroke-linecap="round" stroke-linejoin="round"/>
<path d="M18 17V19" stroke="currentColor" stroke-width="1.5" stroke-linecap="round" stroke-linejoin="round"/>
<path d="M14 17V19" stroke="currentColor" stroke-width="1.5" stroke-linecap="round" stroke-linejoin="round"/>
<path d="M10 6H6" stroke="currentColor" stroke-width="1.5" stroke-linecap="round" stroke-linejoin="round"/>
<path d="M10 18H6" stroke="currentColor" stroke-width="1.5" stroke-linecap="round" stroke-linejoin="round"/>
</svg>

<svg xmlns="http://www.w3.org/2000/svg" width="20" height="20" fill="none" viewBox="0 0 24 24">
  <path stroke="currentcolor" stroke-linecap="round" stroke-linejoin="round" stroke-width="1.5" d="M4.68 10h14.63a2.7 2.7 0 0 0 2.68-2.68V4.69a2.7 2.7 0 0 0-2.68-2.68H4.68A2.7 2.7 0 0 0 2 4.69v2.63A2.7 2.7 0 0 0 4.68 10m0 12h14.63a2.7 2.7 0 0 0 2.68-2.68v-2.63a2.7 2.7 0 0 0-2.68-2.68H4.68A2.7 2.7 0 0 0 2 16.69v2.63A2.7 2.7 0 0 0 4.68 22M18 5v2m-4-2v2m4 10v2m-4-2v2M10 6H6m4 12H6"/>
</svg>
